X:318
T:The merry huntsman
C:anon.
O:Ireland
R:Double jig
B:O'Neills's 1001
Z:Transcribed by Frank Nordberg http://www.musicaviva.com
M:6/8
L:1/8
K:Gdor
(a/g/)||"^segno"fcA AcA|fcA fag|fcA AcA|dBG G2e|fcA AcA|fcA efg|afc gec|dBG G2:|
|:z|c2a gec|gec efg|c2a gec|d=BG Bcd|c2a gec|gec efg|afd gec|[1 d=BG Bcd:|[2 d=BG fag"^segno"|]


